symbols/web/create_new_folder/materialsymbolsrounded/create_new_folder_wght300gradN25fill1_48px.svg

<svg xmlns="http://www.w3.org/2000/svg" height="48" width="48"><path d="M30 31.45q.45 0 .775-.3t.325-.8V27.1h3.2q.5 0 .825-.325.325-.325.325-.775 0-.5-.325-.8-.325-.3-.825-.3h-3.2v-3.25q0-.5-.325-.8-.325-.3-.825-.3-.45 0-.75.3t-.3.8v3.25h-3.3q-.45 0-.75.325t-.3.775q0 .5.3.8.3.3.75.3h3.3v3.25q0 .5.3.8.3.3.8.3ZM8 38.9q-1.15 0-1.975-.85-.825-.85-.825-2v-23.3q0-1.1.825-1.95Q6.85 9.95 8 9.95h12.45q.55 0 1.075.225.525.225.925.625l1.6 1.6h16q1.15 0 2 .85.85.85.85 1.95v20.85q0 1.15-.85 2-.85.85-2 .85Z"/></svg>

<svg xmlns="http://www.w3.org/2000/svg" height="48" width="48"><path d="M30 31.45Q30.45 31.45 30.775 31.15Q31.1 30.85 31.1 30.35V27.1H34.3Q34.8 27.1 35.125 26.775Q35.45 26.45 35.45 26Q35.45 25.5 35.125 25.2Q34.8 24.9 34.3 24.9H31.1V21.65Q31.1 21.15 30.775 20.85Q30.45 20.55 29.95 20.55Q29.5 20.55 29.2 20.85Q28.9 21.15 28.9 21.65V24.9H25.6Q25.15 24.9 24.85 25.225Q24.55 25.55 24.55 26Q24.55 26.5 24.85 26.8Q25.15 27.1 25.6 27.1H28.9V30.35Q28.9 30.85 29.2 31.15Q29.5 31.45 30 31.45ZM8 38.9Q6.85 38.9 6.025 38.05Q5.2 37.2 5.2 36.05V12.75Q5.2 11.65 6.025 10.8Q6.85 9.95 8 9.95H20.45Q21 9.95 21.525 10.175Q22.05 10.4 22.45 10.8L24.05 12.4H40.05Q41.2 12.4 42.05 13.25Q42.9 14.1 42.9 15.2V36.05Q42.9 37.2 42.05 38.05Q41.2 38.9 40.05 38.9Z"/></svg>
